svg/furkot/icomoon/notebook.svg

<svg height="512" viewBox="0 0 512 512" width="512"><path d="m449.18 32h-385.18v64h-46.82c-8.8 0-17.18 6.264-17.18 15.064v32c0 8.8 8.38 16.936 17.18 16.936h46.82v32h-46.82c-8.8 0-17.18 6.264-17.18 15.064v32c0 8.8 8.38 16.936 17.18 16.936h46.82v32h-46.82c-8.8 0-17.18 6.264-17.18 15.064v32c0 8.799 8.38 16.936 17.18 16.936h46.82v32h-46.82c-8.8 0-17.18 6.264-17.18 15.064v32c0 8.8 8.38 16.936 17.18 16.936h46.82v64h385.18c17.674 0 30.82-15.263 30.82-32.936v-416c0-17.673-13.146-31.064-30.82-31.064zm-289.18 448h-64v-32h17.18c8.8 0 14.82-8.136 14.82-16.936v-32c0-8.801-6.021-15.064-14.82-15.064h-17.18v-32h17.18c8.8 0 14.82-8.136 14.82-16.936v-32c0-8.801-6.021-15.064-14.82-15.064h-17.18v-32h17.18c8.8 0 14.82-8.136 14.82-16.936v-32c0-8.801-6.021-15.064-14.82-15.064h-17.18v-32h17.18c8.8 0 14.82-8.136 14.82-16.936v-32c0-8.801-6.02-15.064-14.82-15.064h-17.18v-32h64z"/></svg>

<svg width="512" height="512" viewBox="0 0 512 512" data-tags="notebook, notes, book, journal" style="margin-left:8px;margin-top:8px"><path d="M 449.18,32.00L 64.00,32.00 l0.00,64.00 L 17.18,96.00 C 8.38,96.00,0.00,102.264,0.00,111.064l0.00,32.00 C0.00,151.864, 8.38,160.00, 17.18,160.00L 64.00,160.00 l0.00,32.00 L 17.18,192.00	C 8.38,192.00,0.00,198.264,0.00,207.064l0.00,32.00 C0.00,247.864, 8.38,256.00, 17.18,256.00L 64.00,256.00 l0.00,32.00 L 17.18,288.00 C 8.38,288.00,0.00,294.264,0.00,303.064l0.00,32.00	C0.00,343.863, 8.38,352.00, 17.18,352.00L 64.00,352.00 l0.00,32.00 L 17.18,384.00 C 8.38,384.00,0.00,390.264,0.00,399.064l0.00,32.00 C0.00,439.864, 8.38,448.00, 17.18,448.00L 64.00,448.00 l0.00,64.00 l 385.18,0.00	c 17.674,0.00, 30.82-15.263, 30.82-32.936l0.00-416.00 C 480.00,45.391, 466.854,32.00, 449.18,32.00z M 160.00,480.00L 96.00,480.00 l0.00-32.00 l 17.18,0.00 c 8.80,0.00, 14.82-8.136, 14.82-16.936	l0.00-32.00 c0.00-8.801-6.021-15.064-14.82-15.064L 96.00,384.00 l0.00-32.00 l 17.18,0.00 c 8.80,0.00, 14.82-8.136, 14.82-16.936l0.00-32.00 c0.00-8.801-6.021-15.064-14.82-15.064L 96.00,288.00 l0.00-32.00	l 17.18,0.00 c 8.80,0.00, 14.82-8.136, 14.82-16.936l0.00-32.00 c0.00-8.801-6.021-15.064-14.82-15.064L 96.00,192.00 l0.00-32.00 l 17.18,0.00 c 8.80,0.00, 14.82-8.136, 14.82-16.936l0.00-32.00	C 128.00,102.263, 121.98,96.00, 113.18,96.00L 96.00,96.00 L 96.00,64.00 l 64.00,0.00 L 160.00,480.00 z"/></svg>
